; generated by PrusaSlicer 2.0.0+win64 on 2020-03-14 at 11:25:46

; 

; external perimeters extrusion width = 0.60mm
; perimeters extrusion width = 0.43mm
; infill extrusion width = 0.45mm
; solid infill extrusion width = 0.70mm
; top infill extrusion width = 0.43mm
; first layer extrusion width = 0.42mm

M73 P0 R32
M201 X9000 Y9000 Z500 E10000 ; sets maximum accelerations, mm/sec^2
M203 X500 Y500 Z12 E120 ; sets maximum feedrates, mm/sec
M204 P2000 R1500 T2000 ; sets acceleration (P, T) and retract acceleration (R), mm/sec^2
M205 X10.00 Y10.00 Z0.20 E2.50 ; sets the jerk limits, mm/sec
M205 S0 T0 ; sets the minimum extruding and travel feed rate, mm/sec
M107
M115 U3.2.3 ; tell printer latest fw version
G90 ; use absolute coordinates
M83 ; extruder relative mode
M204 S2000 T1500 ; MK2 firmware only supports the old M204 format
M104 S215 ; set extruder temp
M140 S60 ; set bed temp
M190 S60 ; wait for bed temp
M109 S215 ; wait for extruder temp
G28 W ; home all without mesh bed level
G80 ; mesh bed leveling
G1 Y-3.0 F1000.0 ; go outside print area
G92 E0.0
G1 X60.0 E9.0  F1000.0 ; intro line
M73 P0 R32
G1 X100.0 E12.5 F1000.0 ; intro line
G92 E0.0
M900 K30 ; Filament gcode
G21 ; set units to millimeters
G90 ; use absolute coordinates
M83 ; use relative distances for extrusion
;BEFORE_LAYER_CHANGE
G92 E0.0
;0.2


G1 E-0.80000 F2100.00000
G1 Z0.600 F10800.000
;AFTER_LAYER_CHANGE
;0.2
G1 X93.213 Y82.033
G1 Z0.200
G1 E0.80000 F2100.00000
M204 S1000
G1 F1200
G1 X93.769 Y81.294 E0.02900
G1 X94.425 Y80.903 E0.02394
G1 X95.180 Y80.762 E0.02405
G1 X148.862 Y80.761 E1.68319
G1 X149.682 Y80.922 E0.02620
G1 X150.385 Y81.381 E0.02631
G1 X150.863 Y82.071 E0.02631
G1 X151.046 Y82.886 E0.02620
G1 X151.047 Y127.087 E1.38589
G1 X150.841 Y127.977 E0.02867
G1 X150.289 Y128.706 E0.02867
G1 X149.633 Y129.097 E0.02394
G1 X148.879 Y129.238 E0.02405
G1 X95.193 Y129.239 E1.68330
G1 X94.286 Y129.039 E0.02911
G1 X93.544 Y128.481 E0.02911
G1 X93.153 Y127.825 E0.02394
G1 X93.012 Y127.074 E0.02394
G1 X93.011 Y82.939 E1.38383
G1 X93.200 Y82.091 E0.02723
G1 F8640
G1 X93.769 Y81.294 E-0.22626
G1 X94.425 Y80.903 E-0.17631
G1 X95.180 Y80.762 E-0.17715
G1 X95.960 Y80.762 E-0.18028
G1 E-0.04000 F2100.00000
G1 Z0.800 F10800.000
G1 X95.787 Y83.537
G1 Z0.200
G1 E0.80000 F2100.00000
G1 F1200
G1 X145.969 Y83.537 E1.57340
G1 X145.969 Y85.663 E0.06665
G1 X97.113 Y85.663 E1.53183
G1 X97.113 Y124.337 E1.21260
G1 X145.969 Y124.337 E1.53183
G1 X145.969 Y126.463 E0.06665
G1 X95.787 Y126.463 E1.57340
G1 X95.787 Y83.597 E1.34403
G1 F8640
G1 X99.079 Y83.593 E-0.76000
G1 E-0.04000 F2100.00000
G1 Z0.800 F10800.000
G1 X97.490 Y86.040
G1 Z0.200
G1 E0.80000 F2100.00000
G1 F1200
G1 X97.490 Y123.960 E1.18895
G1 X146.346 Y123.960 E1.53183
G1 X146.346 Y126.840 E0.09030
G1 X95.410 Y126.840 E1.59705
G1 X95.410 Y83.160 E1.36956
G1 X146.346 Y83.160 E1.59705
G1 X146.346 Y86.040 E0.09030
G1 X97.550 Y86.040 E1.52995
G1 X97.090 Y86.048 F10800.000
G1 F8640
G1 X97.545 Y89.331 E-0.76000
G1 E-0.04000 F2100.00000
G1 Z0.800 F10800.000
G1 X97.000 Y124.003
G1 Z0.200
G1 E0.80000 F2100.00000
G1 F1200
G1 X96.070 Y123.073 E0.04145
G1 X96.070 Y122.537 E0.01689
G1 X96.830 Y123.297 E0.03388
G1 X96.830 Y122.761 E0.01689
G1 X96.070 Y122.001 E0.03388
G1 X96.070 Y121.465 E0.01689
G1 X96.830 Y122.225 E0.03388
G1 X96.830 Y121.689 E0.01689
G1 X96.070 Y120.929 E0.03388
G1 X96.070 Y120.393 E0.01689
G1 X96.830 Y121.153 E0.03388
G1 X96.830 Y120.617 E0.01689
G1 X96.070 Y119.857 E0.03388
G1 X96.070 Y119.321 E0.01689
G1 X96.830 Y120.081 E0.03388
G1 X96.830 Y119.545 E0.01689
G1 X96.070 Y118.785 E0.03388
G1 X96.070 Y118.249 E0.01689
G1 X96.830 Y119.009 E0.03388
G1 X96.830 Y118.473 E0.01689
G1 X96.070 Y117.713 E0.03388
G1 X96.070 Y117.177 E0.01689
G1 X96.830 Y117.937 E0.03388
G1 X96.830 Y117.401 E0.01689
G1 X96.070 Y116.641 E0.03388
G1 X96.070 Y116.105 E0.01689
G1 X96.830 Y116.865 E0.03388
G1 X96.830 Y116.329 E0.01689
G1 X96.070 Y115.569 E0.03388
G1 X96.070 Y115.033 E0.01689
G1 X96.830 Y115.793 E0.03388
G1 X96.830 Y115.257 E0.01689
G1 X96.070 Y114.497 E0.03388
G1 X96.070 Y113.961 E0.01689
G1 X96.830 Y114.721 E0.03388
G1 X96.830 Y114.185 E0.01689
G1 X96.070 Y113.425 E0.03388
G1 X96.070 Y112.889 E0.01689
G1 X96.830 Y113.649 E0.03388
G1 X96.830 Y113.113 E0.01689
G1 X96.070 Y112.353 E0.03388
G1 X96.070 Y111.817 E0.01689
G1 X96.830 Y112.577 E0.03388
G1 X96.830 Y112.041 E0.01689
G1 X96.070 Y111.281 E0.03388
G1 X96.070 Y110.745 E0.01689
G1 X96.830 Y111.505 E0.03388
G1 X96.830 Y110.969 E0.01689
G1 X96.070 Y110.209 E0.03388
G1 X96.070 Y109.673 E0.01689
G1 X96.830 Y110.433 E0.03388
G1 X96.830 Y109.897 E0.01689
G1 X96.070 Y109.137 E0.03388
G1 X96.070 Y108.601 E0.01689
G1 X96.830 Y109.361 E0.03388
G1 X96.830 Y108.825 E0.01689
G1 X96.070 Y108.065 E0.03388
G1 X96.070 Y107.529 E0.01689
G1 X96.830 Y108.289 E0.03388
G1 X96.830 Y107.753 E0.01689
G1 X96.070 Y106.993 E0.03388
G1 X96.070 Y106.457 E0.01689
G1 X96.830 Y107.217 E0.03388
G1 X96.830 Y106.681 E0.01689
G1 X96.070 Y105.921 E0.03388
G1 X96.070 Y105.385 E0.01689
G1 X96.830 Y106.145 E0.03388
G1 X96.830 Y105.609 E0.01689
G1 X96.070 Y104.849 E0.03388
G1 X96.070 Y104.313 E0.01689
G1 X96.830 Y105.073 E0.03388
G1 X96.830 Y104.537 E0.01689
G1 X96.070 Y103.777 E0.03388
G1 X96.070 Y103.241 E0.01689
G1 X96.830 Y104.001 E0.03388
G1 X96.830 Y103.465 E0.01689
G1 X96.070 Y102.705 E0.03388
G1 X96.070 Y102.169 E0.01689
G1 X96.830 Y102.929 E0.03388
G1 X96.830 Y102.393 E0.01689
G1 X96.070 Y101.633 E0.03388
G1 X96.070 Y101.097 E0.01689
G1 X96.830 Y101.857 E0.03388
G1 X96.830 Y101.321 E0.01689
G1 X96.070 Y100.561 E0.03388
G1 X96.070 Y100.024 E0.01689
G1 X96.830 Y100.785 E0.03388
G1 X96.830 Y100.249 E0.01689
G1 X96.070 Y99.488 E0.03388
G1 X96.070 Y98.952 E0.01689
G1 X96.830 Y99.713 E0.03388
G1 X96.830 Y99.177 E0.01689
G1 X96.070 Y98.416 E0.03388
G1 X96.070 Y97.880 E0.01689
G1 X96.830 Y98.641 E0.03388
G1 X96.830 Y98.105 E0.01689
G1 X96.070 Y97.344 E0.03388
G1 X96.070 Y96.808 E0.01689
G1 X96.830 Y97.569 E0.03388
G1 X96.830 Y97.033 E0.01689
G1 X96.070 Y96.272 E0.03388
G1 X96.070 Y95.736 E0.01689
G1 X96.830 Y96.497 E0.03388
G1 X96.830 Y95.961 E0.01689
G1 X96.070 Y95.200 E0.03388
G1 X96.070 Y94.664 E0.01689
G1 X96.830 Y95.425 E0.03388
G1 X96.830 Y94.889 E0.01689
G1 X96.070 Y94.128 E0.03388
G1 X96.070 Y93.592 E0.01689
G1 X96.830 Y94.353 E0.03388
G1 X96.830 Y93.817 E0.01689
G1 X96.070 Y93.056 E0.03388
G1 X96.070 Y92.520 E0.01689
G1 X96.830 Y93.281 E0.03388
G1 X96.830 Y92.745 E0.01689
G1 X96.070 Y91.984 E0.03388
G1 X96.070 Y91.448 E0.01689
G1 X96.830 Y92.209 E0.03388
G1 X96.830 Y91.673 E0.01689
G1 X96.070 Y90.912 E0.03388
G1 X96.070 Y90.376 E0.01689
G1 X96.830 Y91.137 E0.03388
G1 X96.830 Y90.601 E0.01689
G1 X96.070 Y89.840 E0.03388
G1 X96.070 Y89.304 E0.01689
G1 X96.830 Y90.065 E0.03388
G1 X96.830 Y89.529 E0.01689
G1 X96.070 Y88.768 E0.03388
G1 X96.070 Y88.232 E0.01689
G1 X96.830 Y88.992 E0.03388
G1 X96.830 Y88.456 E0.01689
G1 X96.070 Y87.696 E0.03388
G1 X96.070 Y87.160 E0.01689
G1 X96.830 Y87.920 E0.03388
G1 X96.830 Y87.384 E0.01689
G1 X96.070 Y86.624 E0.03388
G1 X96.070 Y86.088 E0.01689
G1 X96.830 Y86.848 E0.03388
G1 X96.830 Y86.312 E0.01689
G1 X96.070 Y85.552 E0.03388
G1 X96.070 Y85.016 E0.01689
G1 X96.830 Y85.776 E0.03388
G1 X96.830 Y85.380 E0.01249
G1 X96.970 Y85.380 E0.00440
G1 X96.070 Y84.480 E0.04011
G1 X96.070 Y83.944 E0.01689
G1 X97.506 Y85.380 E0.06400
G1 X98.042 Y85.380 E0.01689
G1 X96.482 Y83.820 E0.06954
G1 X97.018 Y83.820 E0.01689
G1 X98.578 Y85.380 E0.06954
G1 X99.114 Y85.380 E0.01689
G1 X97.554 Y83.820 E0.06954
G1 X98.090 Y83.820 E0.01689
G1 X99.650 Y85.380 E0.06954
G1 X100.186 Y85.380 E0.01689
G1 X98.626 Y83.820 E0.06954
G1 X99.162 Y83.820 E0.01689
G1 X100.722 Y85.380 E0.06954
G1 X101.258 Y85.380 E0.01689
G1 X99.698 Y83.820 E0.06954
G1 X100.234 Y83.820 E0.01689
G1 X101.794 Y85.380 E0.06954
G1 X102.330 Y85.380 E0.01689
G1 X100.770 Y83.820 E0.06954
G1 X101.306 Y83.820 E0.01689
G1 X102.866 Y85.380 E0.06954
G1 X103.402 Y85.380 E0.01689
G1 X101.842 Y83.820 E0.06954
G1 X102.378 Y83.820 E0.01689
G1 X103.938 Y85.380 E0.06954
G1 X104.474 Y85.380 E0.01689
G1 X102.914 Y83.820 E0.06954
G1 X103.450 Y83.820 E0.01689
G1 X105.010 Y85.380 E0.06954
G1 X105.546 Y85.380 E0.01689
G1 X103.986 Y83.820 E0.06954
G1 X104.522 Y83.820 E0.01689
G1 X106.082 Y85.380 E0.06954
G1 X106.618 Y85.380 E0.01689
G1 X105.058 Y83.820 E0.06954
G1 X105.594 Y83.820 E0.01689
G1 X107.154 Y85.380 E0.06954
G1 X107.690 Y85.380 E0.01689
G1 X106.130 Y83.820 E0.06954
G1 X106.666 Y83.820 E0.01689
G1 X108.226 Y85.380 E0.06954
G1 X108.762 Y85.380 E0.01689
G1 X107.202 Y83.820 E0.06954
G1 X107.738 Y83.820 E0.01689
G1 X109.298 Y85.380 E0.06954
G1 X109.834 Y85.380 E0.01689
G1 X108.274 Y83.820 E0.06954
G1 X108.810 Y83.820 E0.01689
G1 X110.370 Y85.380 E0.06954
G1 X110.906 Y85.380 E0.01689
G1 X109.346 Y83.820 E0.06954
G1 X109.882 Y83.820 E0.01689
G1 X111.442 Y85.380 E0.06954
G1 X111.978 Y85.380 E0.01689
G1 X110.418 Y83.820 E0.06954
G1 X110.954 Y83.820 E0.01689
G1 X112.514 Y85.380 E0.06954
G1 X113.050 Y85.380 E0.01689
G1 X111.490 Y83.820 E0.06954
G1 X112.026 Y83.820 E0.01689
G1 X113.586 Y85.380 E0.06954
G1 X114.122 Y85.380 E0.01689
G1 X112.562 Y83.820 E0.06954
G1 X113.098 Y83.820 E0.01689
G1 X114.658 Y85.380 E0.06954
G1 X115.194 Y85.380 E0.01689
G1 X113.634 Y83.820 E0.06954
G1 X114.170 Y83.820 E0.01689
G1 X115.730 Y85.380 E0.06954
G1 X116.266 Y85.380 E0.01689
G1 X114.706 Y83.820 E0.06954
G1 X115.242 Y83.820 E0.01689
G1 X116.802 Y85.380 E0.06954
G1 X117.338 Y85.380 E0.01689
G1 X115.778 Y83.820 E0.06954
G1 X116.314 Y83.820 E0.01689
G1 X117.874 Y85.380 E0.06954
G1 X118.410 Y85.380 E0.01689
G1 X116.850 Y83.820 E0.06954
G1 X117.386 Y83.820 E0.01689
G1 X118.946 Y85.380 E0.06954
G1 X119.482 Y85.380 E0.01689
G1 X117.922 Y83.820 E0.06954
G1 X118.458 Y83.820 E0.01689
G1 X120.018 Y85.380 E0.06954
G1 X120.554 Y85.380 E0.01689
G1 X118.994 Y83.820 E0.06954
G1 X119.530 Y83.820 E0.01689
G1 X121.090 Y85.380 E0.06954
G1 X121.626 Y85.380 E0.01689
G1 X120.066 Y83.820 E0.06954
G1 X120.602 Y83.820 E0.01689
G1 X122.162 Y85.380 E0.06954
G1 X122.698 Y85.380 E0.01689
G1 X121.138 Y83.820 E0.06954
G1 X121.674 Y83.820 E0.01689
G1 X123.234 Y85.380 E0.06954
G1 X123.770 Y85.380 E0.01689
G1 X122.210 Y83.820 E0.06954
G1 X122.746 Y83.820 E0.01689
G1 X124.306 Y85.380 E0.06954
G1 X124.843 Y85.380 E0.01689
G1 X123.282 Y83.820 E0.06954
G1 X123.818 Y83.820 E0.01689
G1 X125.379 Y85.380 E0.06954
G1 X125.915 Y85.380 E0.01689
G1 X124.354 Y83.820 E0.06954
G1 X124.890 Y83.820 E0.01689
G1 X126.451 Y85.380 E0.06954
G1 X126.987 Y85.380 E0.01689
G1 X125.426 Y83.820 E0.06954
G1 X125.962 Y83.820 E0.01689
G1 X127.523 Y85.380 E0.06954
G1 X128.059 Y85.380 E0.01689
G1 X126.498 Y83.820 E0.06954
G1 X127.034 Y83.820 E0.01689
G1 X128.595 Y85.380 E0.06954
G1 X129.131 Y85.380 E0.01689
G1 X127.570 Y83.820 E0.06954
G1 X128.106 Y83.820 E0.01689
G1 X129.667 Y85.380 E0.06954
G1 X130.203 Y85.380 E0.01689
G1 X128.642 Y83.820 E0.06954
G1 X129.178 Y83.820 E0.01689
G1 X130.739 Y85.380 E0.06954
G1 X131.275 Y85.380 E0.01689
G1 X129.714 Y83.820 E0.06954
G1 X130.250 Y83.820 E0.01689
G1 X131.811 Y85.380 E0.06954
G1 X132.347 Y85.380 E0.01689
G1 X130.786 Y83.820 E0.06954
G1 X131.322 Y83.820 E0.01689
G1 X132.883 Y85.380 E0.06954
G1 X133.419 Y85.380 E0.01689
G1 X131.858 Y83.820 E0.06954
G1 X132.394 Y83.820 E0.01689
G1 X133.955 Y85.380 E0.06954
M73 P3 R31
G1 X134.491 Y85.380 E0.01689
G1 X132.930 Y83.820 E0.06954
G1 X133.466 Y83.820 E0.01689
G1 X135.027 Y85.380 E0.06954
G1 X135.563 Y85.380 E0.01689
G1 X134.002 Y83.820 E0.06954
G1 X134.538 Y83.820 E0.01689
G1 X136.099 Y85.380 E0.06954
G1 X136.635 Y85.380 E0.01689
G1 X135.075 Y83.820 E0.06954
G1 X135.611 Y83.820 E0.01689
G1 X137.171 Y85.380 E0.06954
G1 X137.707 Y85.380 E0.01689
G1 X136.147 Y83.820 E0.06954
G1 X136.683 Y83.820 E0.01689
G1 X138.243 Y85.380 E0.06954
G1 X138.779 Y85.380 E0.01689
G1 X137.219 Y83.820 E0.06954
G1 X137.755 Y83.820 E0.01689
G1 X139.315 Y85.380 E0.06954
G1 X139.851 Y85.380 E0.01689
G1 X138.291 Y83.820 E0.06954
G1 X138.827 Y83.820 E0.01689
G1 X140.387 Y85.380 E0.06954
G1 X140.923 Y85.380 E0.01689
G1 X139.363 Y83.820 E0.06954
G1 X139.899 Y83.820 E0.01689
G1 X141.459 Y85.380 E0.06954
G1 X141.995 Y85.380 E0.01689
G1 X140.435 Y83.820 E0.06954
G1 X140.971 Y83.820 E0.01689
G1 X142.531 Y85.380 E0.06954
G1 X143.067 Y85.380 E0.01689
G1 X141.507 Y83.820 E0.06954
G1 X142.043 Y83.820 E0.01689
G1 X143.603 Y85.380 E0.06954
G1 X144.139 Y85.380 E0.01689
G1 X142.579 Y83.820 E0.06954
G1 X143.115 Y83.820 E0.01689
G1 X144.675 Y85.380 E0.06954
G1 X145.211 Y85.380 E0.01689
G1 X143.651 Y83.820 E0.06954
G1 X144.187 Y83.820 E0.01689
G1 X145.686 Y85.319 E0.06681
G1 X145.686 Y84.783 E0.01689
G1 X144.723 Y83.820 E0.04292
G1 X145.259 Y83.820 E0.01689
G1 X145.855 Y84.417 E0.02659
G1 F8640
G1 X145.259 Y83.820 E-0.19485
G1 X144.723 Y83.820 E-0.12377
G1 X145.686 Y84.783 E-0.31447
G1 X145.686 Y85.319 E-0.12377
G1 X145.676 Y85.309 E-0.00315
G1 E-0.04000 F2100.00000
G1 Z0.800 F10800.000
G1 X145.855 Y125.154
G1 Z0.200
G1 E0.80000 F2100.00000
G1 F1200
G1 X145.322 Y124.620 E0.02378
G1 X144.786 Y124.620 E0.01689
G1 X145.686 Y125.520 E0.04011
G1 X145.686 Y126.056 E0.01689
G1 X144.250 Y124.620 E0.06400
G1 X143.714 Y124.620 E0.01689
G1 X145.274 Y126.180 E0.06954
G1 X144.738 Y126.180 E0.01689
G1 X143.178 Y124.620 E0.06954
G1 X142.642 Y124.620 E0.01689
G1 X144.202 Y126.180 E0.06954
G1 X143.666 Y126.180 E0.01689
G1 X142.106 Y124.620 E0.06954
G1 X141.570 Y124.620 E0.01689
G1 X143.130 Y126.180 E0.06954
G1 X142.594 Y126.180 E0.01689
G1 X141.034 Y124.620 E0.06954
G1 X140.498 Y124.620 E0.01689
G1 X142.058 Y126.180 E0.06954
G1 X141.522 Y126.180 E0.01689
G1 X139.962 Y124.620 E0.06954
G1 X139.426 Y124.620 E0.01689
G1 X140.986 Y126.180 E0.06954
G1 X140.450 Y126.180 E0.01689
G1 X138.890 Y124.620 E0.06954
G1 X138.354 Y124.620 E0.01689
G1 X139.914 Y126.180 E0.06954
G1 X139.378 Y126.180 E0.01689
G1 X137.818 Y124.620 E0.06954
G1 X137.282 Y124.620 E0.01689
G1 X138.842 Y126.180 E0.06954
G1 X138.306 Y126.180 E0.01689
G1 X136.746 Y124.620 E0.06954
G1 X136.210 Y124.620 E0.01689
G1 X137.770 Y126.180 E0.06954
G1 X137.234 Y126.180 E0.01689
G1 X135.674 Y124.620 E0.06954
G1 X135.138 Y124.620 E0.01689
G1 X136.698 Y126.180 E0.06954
G1 X136.162 Y126.180 E0.01689
G1 X134.602 Y124.620 E0.06954
G1 X134.066 Y124.620 E0.01689
G1 X135.626 Y126.180 E0.06954
G1 X135.090 Y126.180 E0.01689
G1 X133.530 Y124.620 E0.06954
G1 X132.994 Y124.620 E0.01689
G1 X134.554 Y126.180 E0.06954
G1 X134.018 Y126.180 E0.01689
G1 X132.458 Y124.620 E0.06954
G1 X131.921 Y124.620 E0.01689
G1 X133.482 Y126.180 E0.06954
G1 X132.946 Y126.180 E0.01689
G1 X131.385 Y124.620 E0.06954
G1 X130.849 Y124.620 E0.01689
G1 X132.410 Y126.180 E0.06954
G1 X131.874 Y126.180 E0.01689
G1 X130.313 Y124.620 E0.06954
G1 X129.777 Y124.620 E0.01689
G1 X131.338 Y126.180 E0.06954
G1 X130.802 Y126.180 E0.01689
G1 X129.241 Y124.620 E0.06954
G1 X128.705 Y124.620 E0.01689
G1 X130.266 Y126.180 E0.06954
G1 X129.730 Y126.180 E0.01689
G1 X128.169 Y124.620 E0.06954
G1 X127.633 Y124.620 E0.01689
G1 X129.194 Y126.180 E0.06954
G1 X128.658 Y126.180 E0.01689
G1 X127.097 Y124.620 E0.06954
G1 X126.561 Y124.620 E0.01689
G1 X128.122 Y126.180 E0.06954
G1 X127.586 Y126.180 E0.01689
G1 X126.025 Y124.620 E0.06954
G1 X125.489 Y124.620 E0.01689
G1 X127.050 Y126.180 E0.06954
G1 X126.514 Y126.180 E0.01689
G1 X124.953 Y124.620 E0.06954
G1 X124.417 Y124.620 E0.01689
G1 X125.978 Y126.180 E0.06954
G1 X125.442 Y126.180 E0.01689
G1 X123.881 Y124.620 E0.06954
G1 X123.345 Y124.620 E0.01689
G1 X124.906 Y126.180 E0.06954
G1 X124.370 Y126.180 E0.01689
G1 X122.809 Y124.620 E0.06954
G1 X122.273 Y124.620 E0.01689
G1 X123.834 Y126.180 E0.06954
G1 X123.298 Y126.180 E0.01689
G1 X121.737 Y124.620 E0.06954
G1 X121.201 Y124.620 E0.01689
G1 X122.762 Y126.180 E0.06954
G1 X122.226 Y126.180 E0.01689
G1 X120.665 Y124.620 E0.06954
G1 X120.129 Y124.620 E0.01689
G1 X121.689 Y126.180 E0.06954
G1 X121.153 Y126.180 E0.01689
G1 X119.593 Y124.620 E0.06954
G1 X119.057 Y124.620 E0.01689
G1 X120.617 Y126.180 E0.06954
G1 X120.081 Y126.180 E0.01689
G1 X118.521 Y124.620 E0.06954
G1 X117.985 Y124.620 E0.01689
